icons/op-upload-24.svg

<svg width="24" height="24" viewBox="0 0 24 24" fill="none" xmlns="http://www.w3.org/2000/svg">
<path d="M19.9278 10.4118C19.5809 8.41758 17.5944 7.45261 15.7656 7.61344C15.1665 4.13957 9.67999 4.10741 9.20702 7.64561C7.85116 7.61344 6.84215 8.51407 6.52683 9.86502C5.10791 10.058 4.06737 11.1195 4.0043 12.6312C3.90971 14.2395 5.39169 15.3331 6.81062 15.4296C7.28359 15.4618 7.28359 14.722 6.81062 14.6898C4.0989 14.5612 4.0989 10.7013 6.81062 10.5405H6.84215C6.99981 10.5405 7.12593 10.4762 7.15746 10.2832C7.189 10.1223 7.22053 9.96152 7.25206 9.83285C7.53584 8.93222 8.16648 8.38541 9.08089 8.35325H9.52234C9.74306 8.38541 9.83765 8.22458 9.83765 8.03159C9.86918 8.03159 9.86918 7.99943 9.86918 7.96726C9.99531 4.91155 14.9142 4.91155 15.135 7.96726V8.06376C15.1665 8.09592 15.1665 8.12809 15.198 8.16025C15.198 8.19242 15.2296 8.19242 15.2296 8.22458C15.2611 8.22458 15.2611 8.22458 15.2611 8.25675C15.3242 8.32108 15.4187 8.35325 15.5449 8.35325H15.5764C19.4548 7.61344 20.7476 13.1781 16.9638 14.3038V14.336C16.5224 14.4647 16.7115 15.1402 17.153 15.0115C19.171 14.4003 20.3062 12.5669 19.9278 10.4118ZM12.5494 10.3797C12.3917 10.1545 12.1079 10.1545 11.9503 10.3797C11.3196 11.2803 10.6575 12.1809 10.0268 13.0816C9.93225 13.2424 9.96378 13.4032 10.0584 13.4997C10.1214 13.564 10.216 13.6284 10.3422 13.6284H11.6034V18.1959C11.6034 18.6462 11.8872 19 12.2656 19C12.6124 19 12.8962 18.6462 12.8962 18.1959V13.6284H14.1575C14.4097 13.6284 14.6305 13.3067 14.4728 13.0816C13.8422 12.1809 13.2115 11.2803 12.5494 10.3797Z" fill="black"/>
</svg>

<svg xmlns="http://www.w3.org/2000/svg" width="24" height="24" viewBox="0 0 24 24"><path d="M19.928 10.412c-.347-1.994-2.334-2.959-4.162-2.799-.6-3.473-6.086-3.506-6.559.033-1.356-.033-2.365.868-2.68 2.219-1.419.193-2.46 1.255-2.523 2.766-.094 1.608 1.388 2.702 2.807 2.799.473.032.473-.708 0-.74-2.712-.129-2.712-3.989 0-4.15h.031c.158 0 .284-.064.315-.257.032-.161.064-.321.095-.45.284-.901.914-1.448 1.829-1.48h.441c.221.032.316-.128.316-.321.031 0 .031-.033.031-.065.126-3.055 5.045-3.055 5.266 0v.097c.031.032.031.064.063.096 0 .032.032.032.032.065.031 0 .031 0 .031.032.063.064.158.096.284.096h.031c3.879-.74 5.172 4.825 1.388 5.951v.032c-.442.129-.252.804.189.675 2.018-.611 3.153-2.444 2.775-4.599Zm-7.379-.032c-.157-.225-.441-.225-.599 0-.63.9-1.292 1.801-1.923 2.702-.095.16-.063.321.031.418a.398.398 0 0 0 .284.128h1.261v4.568c0 .45.284.804.663.804.346 0 .63-.354.63-.804v-4.568h1.262c.252 0 .472-.321.315-.546a141.977 141.977 0 0 0-1.924-2.702Z"/></svg>
